austria/municipalities/70353.svg

<?xml version="1.0" encoding="UTF-8"?>
<!DOCTYPE svg PUBLIC "-//W3C//DTD SVG 1.1//EN" "http://www.w3.org/Graphics/SVG/1.1/DTD/svg11.dtd">
<svg xmlns="http://www.w3.org/2000/svg" version="1.1" width="166px" height="192px" style="shape-rendering:geometricPrecision; text-rendering:geometricPrecision; image-rendering:optimizeQuality; fill-rule:evenodd; clip-rule:evenodd" xmlns:xlink="http://www.w3.org/1999/xlink">
<g><path style="opacity:1" fill="#111010" d="M -0.5,-0.5 C 54.8333,-0.5 110.167,-0.5 165.5,-0.5C 165.5,39.1667 165.5,78.8333 165.5,118.5C 157.367,159.633 132.7,183.966 91.5,191.5C 84.8333,191.5 78.1667,191.5 71.5,191.5C 30.4674,182.802 6.46741,157.802 -0.5,116.5C -0.5,77.5 -0.5,38.5 -0.5,-0.5 Z"/></g>
<g><path style="opacity:1" fill="#fcfcfc" d="M 3.5,3.5 C 56.1667,3.5 108.833,3.5 161.5,3.5C 161.667,41.8348 161.5,80.1681 161,118.5C 155.521,150.972 137.355,172.805 106.5,184C 63.1208,194.056 30.9542,179.556 10,140.5C 6.60018,132.5 4.60018,124.167 4,115.5C 3.50001,78.1682 3.33335,40.8348 3.5,3.5 Z"/></g>
<g><path style="opacity:1" fill="#1c1412" d="M 146.5,10.5 C 148.028,10.5173 148.528,11.184 148,12.5C 146.269,14.6166 144.102,16.1166 141.5,17C 133.228,18.204 124.894,18.8707 116.5,19C 114.668,19.7485 113.001,20.7485 111.5,22C 122.163,22.852 132.83,23.1853 143.5,23C 146.903,22.4217 150.07,21.2551 153,19.5C 153.5,20 154,20.5 154.5,21C 151.744,24.4267 148.41,27.0934 144.5,29C 136.855,30.1013 129.189,31.1013 121.5,32C 125.245,33.3703 128.912,35.037 132.5,37C 135.769,40.4531 136.269,44.2865 134,48.5C 132.352,49.717 130.519,50.5503 128.5,51C 133.492,54.1569 135.325,58.6569 134,64.5C 132.2,66.317 130.034,67.4837 127.5,68C 131.719,73.6951 130.719,78.3618 124.5,82C 123.207,82.49 121.873,82.6567 120.5,82.5C 120.338,93.3507 115.672,96.0174 106.5,90.5C 102.98,95.6815 101.813,101.348 103,107.5C 103.833,108.333 104.667,109.167 105.5,110C 121.293,110.136 136.293,106.636 150.5,99.5C 152.9,116.335 149.733,132.002 141,146.5C 138.667,150.167 135.667,153.167 132,155.5C 120.222,144.68 106.722,138.513 91.5,137C 91.7591,138.261 92.4258,139.261 93.5,140C 95.2556,140.202 96.9223,140.702 98.5,141.5C 97.3523,143.149 96.019,144.649 94.5,146C 96.8473,146.334 99.1806,146.167 101.5,145.5C 100.909,148.614 99.242,151.114 96.5,153C 107.166,154.003 109.833,159.003 104.5,168C 104.167,168.167 103.833,168.333 103.5,168.5C 102.702,166.922 102.202,165.256 102,163.5C 98.0669,161.522 93.9002,161.022 89.5,162C 87.4242,165.988 85.7575,170.154 84.5,174.5C 84.7298,176.626 85.7298,178.293 87.5,179.5C 83.7298,181.024 80.2298,180.691 77,178.5C 76.6743,174.47 76.6743,170.47 77,166.5C 74.6667,168.167 72.3333,169.833 70,171.5C 68.872,173.345 68.372,175.345 68.5,177.5C 62.6741,177.843 60.1741,175.176 61,169.5C 64.1667,167 67.3333,164.5 70.5,162C 65.6486,160.742 61.3153,161.576 57.5,164.5C 54.0117,161.7 53.6783,158.534 56.5,155C 62.5,154.667 68.5,154.333 74.5,154C 78.1922,153.641 80.1922,151.641 80.5,148C 78.9214,142.186 77.4214,136.352 76,130.5C 69.7989,127.983 63.9655,124.817 58.5,121C 56.2001,120.342 53.8668,119.842 51.5,119.5C 46.5896,119.536 45.5896,121.37 48.5,125C 46.0797,125.687 43.913,125.187 42,123.5C 41.7351,125.163 42.2351,126.663 43.5,128C 39.7073,128.022 36.5407,126.522 34,123.5C 33.8568,127.619 33.1901,131.619 32,135.5C 30.1363,138.207 27.6363,139.041 24.5,138C 22.5,136.667 20.5,135.333 18.5,134C 20.8834,133.196 23.05,132.029 25,130.5C 25.4993,125.511 25.6659,120.511 25.5,115.5C 22.2011,114.624 18.8678,114.457 15.5,115C 14.1068,116.171 13.2735,117.671 13,119.5C 5.73736,108.568 8.90403,103.734 22.5,105C 19.938,101.935 16.938,99.4348 13.5,97.5C 12.5224,97.9767 11.6891,98.6433 11,99.5C 9.33378,92.1699 12.1671,89.0032 19.5,90C 22,92.5 24.5,95 27,97.5C 27.6667,94.5 27.6667,91.5 27,88.5C 26.2092,86.3964 24.7092,85.063 22.5,84.5C 27.2651,78.9131 31.4318,79.2464 35,85.5C 35.0779,92.274 35.7446,98.9406 37,105.5C 40.2432,107.263 43.7432,107.929 47.5,107.5C 45.4789,96.0442 49.1456,86.8775 58.5,80C 69.6158,75.5198 80.6158,70.8531 91.5,66C 94.372,63.4634 96.872,60.6301 99,57.5C 101.704,47.5599 98.0374,41.8933 88,40.5C 83.6327,40.9667 79.4661,42.1334 75.5,44C 64.5463,45.1485 53.8796,47.6485 43.5,51.5C 39.6252,51.2947 37.9585,49.2947 38.5,45.5C 47.9002,43.3121 57.2336,40.8121 66.5,38C 63.5,37.3333 60.5,37.3333 57.5,38C 47.3767,40.3745 37.21,42.5412 27,44.5C 22.9001,44.6349 19.4001,43.3016 16.5,40.5C 16.1133,42.7308 15.9466,45.0641 16,47.5C 15.3109,48.3567 14.4776,49.0233 13.5,49.5C 12.8849,46.5638 11.7183,43.8971 10,41.5C 9.23101,38.9009 9.39768,36.4009 10.5,34C 12.1667,33.3333 13.8333,33.3333 15.5,34C 20.703,39.0707 26.703,40.404 33.5,38C 26.645,33.7931 23.3117,27.6265 23.5,19.5C 20.5752,20.639 17.5752,21.139 14.5,21C 10.1279,18.805 9.46122,15.805 12.5,12C 13.8333,11.3333 15.1667,11.3333 16.5,12C 15.6198,13.3561 15.2865,14.8561 15.5,16.5C 18.6112,14.7777 21.9446,13.9443 25.5,14C 27.9405,17.0114 29.1072,20.5114 29,24.5C 31.7244,32.2835 37.2244,35.6169 45.5,34.5C 52.1748,34.1104 58.8415,33.6104 65.5,33C 55.9417,30.8878 46.2751,28.8878 36.5,27C 35.1386,24.4164 35.8052,22.4164 38.5,21C 46.5081,20.8107 54.5081,20.8107 62.5,21C 64.7051,17.7928 67.7051,15.7928 71.5,15C 81.5035,13.9351 91.3368,14.7684 101,17.5C 104.611,14.5144 108.777,12.6811 113.5,12C 119.509,11.5003 125.509,11.6669 131.5,12.5C 136.701,12.2587 141.701,11.592 146.5,10.5 Z"/></g>
<g><path style="opacity:1" fill="#71241a" d="M 148.5,102.5 C 148.56,101.957 148.893,101.624 149.5,101.5C 150.803,104.645 150.803,107.645 149.5,110.5C 149.806,107.615 149.473,104.948 148.5,102.5 Z"/></g>
<g><path style="opacity:1" fill="#d03023" d="M 26.5,82.5 C 29.5468,81.8554 31.7135,82.8554 33,85.5C 33.5466,92.1787 34.2132,98.8454 35,105.5C 38.7565,108.936 43.2565,110.436 48.5,110C 50.5,112.667 52.5,115.333 54.5,118C 51.8333,118.333 49.1667,118.667 46.5,119C 45.3534,124.696 43.52,124.863 41,119.5C 40.0565,120.263 39.5565,121.263 39.5,122.5C 40.0431,123.864 40.2098,125.197 40,126.5C 37.3304,124.995 35.1637,122.995 33.5,120.5C 32.8157,125.208 31.9823,129.874 31,134.5C 28.373,136.988 25.5397,137.155 22.5,135C 25.1019,134.065 26.6019,132.232 27,129.5C 27.6761,124.129 27.5095,118.796 26.5,113.5C 21.4209,111.568 16.7543,112.235 12.5,115.5C 9.8997,112.959 9.8997,110.459 12.5,108C 17.1667,107.667 21.8333,107.333 26.5,107C 22.4444,101.758 17.4444,97.9251 11.5,95.5C 12.9032,91.7455 15.5698,90.5789 19.5,92C 22.685,94.884 25.5184,98.0507 28,101.5C 28.6667,96.5 28.6667,91.5 28,86.5C 25.988,85.4335 25.488,84.1002 26.5,82.5 Z"/></g>
<g><path style="opacity:1" fill="#d13023" d="M 113.5,75.5 C 118.487,79.5426 119.653,84.5426 117,90.5C 116.196,91.8045 115.029,92.4712 113.5,92.5C 111.102,91.611 109.102,90.111 107.5,88C 109.912,84.0095 111.912,79.8429 113.5,75.5 Z"/></g>
<g><path style="opacity:1" fill="#d13023" d="M 119.5,64.5 C 128.17,67.3141 130.17,72.4807 125.5,80C 118.823,80.9865 115.656,78.1532 116,71.5C 117.18,69.1401 118.347,66.8068 119.5,64.5 Z"/></g>
<g><path style="opacity:1" fill="#d03023" d="M 123.5,49.5 C 128.229,51.8957 131.562,55.5624 133.5,60.5C 132.349,65.2525 129.349,66.7525 124.5,65C 123.667,64.1667 122.833,63.3333 122,62.5C 122.907,58.3011 123.407,53.9677 123.5,49.5 Z"/></g>
<g><path style="opacity:1" fill="#a42c1f" d="M 61.5,34.5 C 64.5184,34.3354 67.5184,34.502 70.5,35C 64.8593,36.0721 59.1926,36.4054 53.5,36C 56.3647,35.8171 59.0314,35.3171 61.5,34.5 Z"/></g>
<g><path style="opacity:1" fill="#c62f22" d="M 12.5,13.5 C 14.1,18.9562 17.1,19.7895 21.5,16C 22.8333,15.3333 24.1667,15.3333 25.5,16C 26.9303,20.0628 28.097,24.2295 29,28.5C 31.1107,32.9439 34.6107,35.4439 39.5,36C 43.8333,36.3333 48.1667,36.6667 52.5,37C 44.2658,39.3576 35.9325,41.1909 27.5,42.5C 23.5087,43.067 20.1754,41.9004 17.5,39C 16.2068,38.51 14.8734,38.3433 13.5,38.5C 14.5203,46.118 13.5203,45.9513 10.5,38C 11.4085,35.6807 13.0752,35.0141 15.5,36C 22.291,40.9734 29.6244,41.8068 37.5,38.5C 33.8887,36.7769 30.722,34.4436 28,31.5C 26.6216,27.6121 25.6216,23.6121 25,19.5C 24.2613,18.4258 23.2613,17.7591 22,17.5C 19.3492,19.164 16.5159,19.664 13.5,19C 12.5939,17.3005 12.2606,15.4672 12.5,13.5 Z"/></g>
<g><path style="opacity:1" fill="#d33023" d="M 120.5,35.5 C 125.34,34.847 129.507,36.5137 133,40.5C 134.513,47.6801 131.679,50.1801 124.5,48C 123.846,43.531 122.513,39.3643 120.5,35.5 Z"/></g>
<g><path style="opacity:1" fill="#d43023" d="M 148.5,102.5 C 149.473,104.948 149.806,107.615 149.5,110.5C 149.724,123.609 146.224,135.609 139,146.5C 136.95,148.888 134.616,150.888 132,152.5C 126.94,148.382 121.44,144.882 115.5,142C 102.656,137.206 89.656,132.872 76.5,129C 65.7226,125.039 56.8892,118.539 50,109.5C 46.8141,98.4325 49.6474,89.2658 58.5,82C 66.4461,77.6849 74.7795,74.3516 83.5,72C 87.8282,70.1713 91.8282,67.838 95.5,65C 102.448,57.7732 103.115,50.1065 97.5,42C 94.456,40.0771 91.1227,39.2438 87.5,39.5C 80.2674,41.1856 72.9341,42.3522 65.5,43C 57.6333,45.8507 49.6333,47.8507 41.5,49C 40.0072,47.8438 40.1739,47.0104 42,46.5C 50.8333,44 59.6667,41.5 68.5,39C 73.4754,38.0493 74.4754,35.7159 71.5,32C 60.0276,30.0335 48.6943,27.5335 37.5,24.5C 38.9022,22.8537 40.7356,21.8537 43,21.5C 48.8142,22.2425 54.6476,22.9092 60.5,23.5C 63.6551,21.2009 66.9884,19.0342 70.5,17C 84.1552,15.2212 97.1552,17.2212 109.5,23C 108.04,23.8113 107.707,24.6446 108.5,25.5C 111.235,24.4412 114.069,23.7745 117,23.5C 127.902,25.7009 138.735,25.8676 149.5,24C 147.404,25.7658 145.071,27.0991 142.5,28C 135.533,28.9977 128.533,29.6643 121.5,30C 118.708,30.8966 116.041,32.0633 113.5,33.5C 115.021,33.8797 116.687,34.0464 118.5,34C 119.126,34.7504 119.626,35.5838 120,36.5C 121.496,43.0992 121.829,49.7658 121,56.5C 115.881,68.0707 110.215,79.404 104,90.5C 96.2338,109.783 102.401,116.617 122.5,111C 131.289,108.459 139.955,105.626 148.5,102.5 Z"/></g>
<g><path style="opacity:1" fill="#1c1310" d="M 68.5,19.5 C 73.9933,18.178 76.4933,20.178 76,25.5C 71.7691,28.6507 68.6025,27.8174 66.5,23C 66.9783,21.6974 67.645,20.5307 68.5,19.5 Z"/></g>
<g><path style="opacity:1" fill="#e3e1e1" d="M 70.5,20.5 C 74.1612,20.3501 75.1612,21.8501 73.5,25C 69.9733,25.882 69.3066,25.382 71.5,23.5C 70.8728,22.5832 70.5394,21.5832 70.5,20.5 Z"/></g>
<g><path style="opacity:1" fill="#c92f22" d="M 113.5,13.5 C 123.59,13.8523 133.59,14.019 143.5,14C 141.913,14.8624 140.246,15.5291 138.5,16C 131.833,16.3333 125.167,16.6667 118.5,17C 115.027,17.3194 112.194,18.8194 110,21.5C 107.913,20.2062 105.746,19.0395 103.5,18C 106.564,15.6297 109.897,14.1297 113.5,13.5 Z"/></g>
<g><path style="opacity:1" fill="#fdfdfd" d="M -0.5,116.5 C 6.46741,157.802 30.4674,182.802 71.5,191.5C 47.5,191.5 23.5,191.5 -0.5,191.5C -0.5,166.5 -0.5,141.5 -0.5,116.5 Z"/></g>
<g><path style="opacity:1" fill="#fdfcfc" d="M 165.5,118.5 C 165.5,142.833 165.5,167.167 165.5,191.5C 140.833,191.5 116.167,191.5 91.5,191.5C 132.7,183.966 157.367,159.633 165.5,118.5 Z"/></g>
<g><path style="opacity:1" fill="#1d0e09" d="M 75.5,79.5 C 76.552,79.3505 77.552,79.5172 78.5,80C 71.017,83.6271 67.3504,89.6271 67.5,98C 67.4429,111.568 73.7762,120.568 86.5,125C 100.825,129.634 115.158,129.634 129.5,125C 118.501,125.643 108.834,122.476 100.5,115.5C 97.8908,112.617 96.0575,109.283 95,105.5C 93.7747,98.3783 92.4414,91.3783 91,84.5C 91.9147,85.3279 92.5814,86.3279 93,87.5C 94.505,94.8831 96.1716,102.216 98,109.5C 102.343,116.263 108.51,120.429 116.5,122C 122.803,122.942 129.137,123.609 135.5,124C 115.507,133.176 95.8399,132.509 76.5,122C 66.0428,112.381 63.2095,100.881 68,87.5C 70.0282,84.3078 72.5282,81.6411 75.5,79.5 Z"/></g>
<g><path style="opacity:1" fill="#d03023" d="M 74.5,161.5 C 75.0431,161.44 75.3764,161.107 75.5,160.5C 71.8927,159.511 68.226,159.177 64.5,159.5C 61.9512,159.387 59.6179,160.054 57.5,161.5C 56.1515,159.389 56.4848,157.555 58.5,156C 63.144,156.291 67.8107,156.291 72.5,156C 81.0948,155.353 83.9282,150.853 81,142.5C 79.6623,138.483 78.6623,134.483 78,130.5C 81.5891,132.53 85.4224,133.863 89.5,134.5C 89.7241,138.562 91.7241,141.395 95.5,143C 90.6124,146.587 91.6124,148.587 98.5,149C 96.3428,150.912 94.0094,152.579 91.5,154C 95.0458,155.174 98.7125,155.84 102.5,156C 105.29,158.21 106.123,161.044 105,164.5C 104.167,163 103,161.833 101.5,161C 97.1667,160.333 92.8333,160.333 88.5,161C 84.3933,166.494 83.06,172.494 84.5,179C 80.8369,180.002 78.5035,178.668 77.5,175C 78.9089,170.878 79.7423,166.711 80,162.5C 75.8211,165.257 71.8211,168.257 68,171.5C 67.2432,177.453 65.0765,177.786 61.5,172.5C 65.2276,168.134 69.5609,164.467 74.5,161.5 Z"/></g>
<g><path style="opacity:1" fill="#7d261b" d="M 64.5,159.5 C 68.226,159.177 71.8927,159.511 75.5,160.5C 75.3764,161.107 75.0431,161.44 74.5,161.5C 71.1667,160.833 67.8333,160.167 64.5,159.5 Z"/></g>
</svg>

<svg xmlns="http://www.w3.org/2000/svg" width="166" height="192" style="shape-rendering:geometricPrecision;text-rendering:geometricPrecision;image-rendering:optimizeQuality;fill-rule:evenodd;clip-rule:evenodd"><path style="opacity:1" fill="#111010" d="M-.5-.5h166v119c-8.133 41.133-32.8 65.466-74 73h-20c-41.033-8.698-65.033-33.698-72-75V-.5z"/><path style="opacity:1" fill="#fcfcfc" d="M3.5 3.5h158c.167 38.335 0 76.668-.5 115-5.479 32.472-23.645 54.305-54.5 65.5-43.38 10.056-75.546-4.444-96.5-43.5-3.4-8-5.4-16.333-6-25-.5-37.332-.667-74.665-.5-112z"/><path style="opacity:1" fill="#1c1412" d="M146.5 10.5c1.528.017 2.028.684 1.5 2-1.731 2.117-3.898 3.617-6.5 4.5a194.158 194.158 0 0 1-25 2 18.95 18.95 0 0 0-5 3 329.666 329.666 0 0 0 32 1 27.188 27.188 0 0 0 9.5-3.5l1.5 1.5c-2.756 3.427-6.09 6.093-10 8a868.106 868.106 0 0 1-23 3 80.612 80.612 0 0 1 11 5c3.269 3.453 3.769 7.286 1.5 11.5a14.439 14.439 0 0 1-5.5 2.5c4.992 3.157 6.825 7.657 5.5 13.5-1.8 1.817-3.966 2.984-6.5 3.5 4.219 5.695 3.219 10.362-3 14a8.435 8.435 0 0 1-4 .5c-.162 10.85-4.828 13.517-14 8-3.52 5.181-4.687 10.848-3.5 17l2.5 2.5c15.793.136 30.793-3.364 45-10.5 2.4 16.835-.767 32.502-9.5 47a28.977 28.977 0 0 1-9 9c-11.778-10.82-25.278-16.987-40.5-18.5.26 1.261.926 2.261 2 3a14.72 14.72 0 0 1 5 1.5 25.501 25.501 0 0 1-4 4.5c2.347.334 4.68.167 7-.5-.591 3.114-2.258 5.614-5 7.5 10.666 1.003 13.333 6.003 8 15l-1 .5a14.72 14.72 0 0 1-1.5-5c-3.933-1.978-8.1-2.478-12.5-1.5a67.843 67.843 0 0 0-5 12.5c.23 2.126 1.23 3.793 3 5-3.77 1.524-7.27 1.191-10.5-1a73.809 73.809 0 0 1 0-12l-7 5a10.098 10.098 0 0 0-1.5 6c-5.826.343-8.326-2.324-7.5-8l9.5-7.5c-4.851-1.258-9.185-.424-13 2.5-3.488-2.8-3.822-5.966-1-9.5l18-1c3.692-.359 5.692-2.359 6-6a673.043 673.043 0 0 1-4.5-17.5 88.777 88.777 0 0 1-17.5-9.5 52.95 52.95 0 0 0-7-1.5c-4.91.036-5.91 1.87-3 5.5-2.42.687-4.587.187-6.5-1.5-.265 1.663.235 3.163 1.5 4.5-3.793.022-6.96-1.478-9.5-4.5a46.23 46.23 0 0 1-2 12c-1.864 2.707-4.364 3.541-7.5 2.5l-6-4a21.687 21.687 0 0 0 6.5-3.5c.5-4.989.666-9.989.5-15a23.788 23.788 0 0 0-10-.5c-1.393 1.171-2.226 2.671-2.5 4.5-7.263-10.932-4.096-15.766 9.5-14.5a32.282 32.282 0 0 0-9-7.5 7.253 7.253 0 0 0-2.5 2c-1.666-7.33 1.167-10.497 8.5-9.5l7.5 7.5c.667-3 .667-6 0-9-.79-2.104-2.29-3.437-4.5-4 4.765-5.587 8.932-5.254 12.5 1 .078 6.774.745 13.44 2 20 3.243 1.763 6.743 2.429 10.5 2-2.021-11.456 1.646-20.623 11-27.5a987.623 987.623 0 0 0 33-14 45.24 45.24 0 0 0 7.5-8.5c2.704-9.94-.963-15.607-11-17A38.843 38.843 0 0 0 75.5 44a130.856 130.856 0 0 0-32 7.5c-3.875-.205-5.541-2.205-5-6a439.422 439.422 0 0 0 28-7.5c-3-.667-6-.667-9 0A763.47 763.47 0 0 1 27 44.5c-4.1.135-7.6-1.198-10.5-4a36.265 36.265 0 0 0-.5 7 7.253 7.253 0 0 1-2.5 2 20.948 20.948 0 0 0-3.5-8c-.769-2.6-.602-5.1.5-7.5 1.667-.667 3.333-.667 5 0 5.203 5.07 11.203 6.404 18 4-6.855-4.207-10.188-10.373-10-18.5-2.925 1.139-5.925 1.639-9 1.5-4.372-2.195-5.039-5.195-2-9 1.333-.667 2.667-.667 4 0-.88 1.356-1.213 2.856-1 4.5a19.669 19.669 0 0 1 10-2.5c2.44 3.011 3.607 6.511 3.5 10.5 2.724 7.783 8.224 11.117 16.5 10 6.675-.39 13.342-.89 20-1.5a1108.735 1108.735 0 0 0-29-6c-1.361-2.584-.695-4.584 2-6 8.008-.19 16.008-.19 24 0 2.205-3.207 5.205-5.207 9-6 10.004-1.065 19.837-.232 29.5 2.5 3.611-2.986 7.777-4.819 12.5-5.5a81.346 81.346 0 0 1 18 .5c5.201-.241 10.201-.908 15-2z"/><path style="opacity:1" fill="#71241a" d="M148.5 102.5c.06-.543.393-.876 1-1 1.303 3.145 1.303 6.145 0 9 .306-2.885-.027-5.552-1-8z"/><path style="opacity:1" fill="#d03023" d="M26.5 82.5c3.047-.645 5.213.355 6.5 3a557.888 557.888 0 0 0 2 20c3.757 3.436 8.257 4.936 13.5 4.5l6 8-8 1c-1.147 5.696-2.98 5.863-5.5.5-.944.763-1.444 1.763-1.5 3 .543 1.364.71 2.697.5 4-2.67-1.505-4.836-3.505-6.5-6a219.103 219.103 0 0 1-2.5 14c-2.627 2.488-5.46 2.655-8.5.5 2.602-.935 4.102-2.768 4.5-5.5a50.945 50.945 0 0 0-.5-16c-5.08-1.932-9.746-1.265-14 2-2.6-2.541-2.6-5.041 0-7.5l14-1c-4.056-5.242-9.056-9.075-15-11.5 1.403-3.754 4.07-4.921 8-3.5a60.277 60.277 0 0 1 8.5 9.5c.667-5 .667-10 0-15-2.012-1.067-2.512-2.4-1.5-4z"/><path style="opacity:1" fill="#d13023" d="M113.5 75.5c4.987 4.043 6.153 9.043 3.5 15-.804 1.305-1.971 1.971-3.5 2-2.398-.889-4.398-2.389-6-4.5a71.741 71.741 0 0 0 6-12.5z"/><path style="opacity:1" fill="#d13023" d="M119.5 64.5c8.67 2.814 10.67 7.98 6 15.5-6.677.987-9.844-1.847-9.5-8.5l3.5-7z"/><path style="opacity:1" fill="#d03023" d="M123.5 49.5c4.729 2.396 8.062 6.062 10 11-1.151 4.752-4.151 6.252-9 4.5l-2.5-2.5a68.152 68.152 0 0 0 1.5-13z"/><path style="opacity:1" fill="#a42c1f" d="M61.5 34.5a40.936 40.936 0 0 1 9 .5 65.68 65.68 0 0 1-17 1c2.865-.183 5.531-.683 8-1.5z"/><path style="opacity:1" fill="#c62f22" d="M12.5 13.5c1.6 5.456 4.6 6.29 9 2.5 1.333-.667 2.667-.667 4 0A99.731 99.731 0 0 1 29 28.5c2.11 4.444 5.61 6.944 10.5 7.5l13 1a204.975 204.975 0 0 1-25 5.5c-3.991.567-7.325-.6-10-3.5a8.434 8.434 0 0 0-4-.5c1.02 7.618.02 7.451-3-.5.909-2.32 2.575-2.986 5-2 6.791 4.973 14.124 5.807 22 2.5a31.02 31.02 0 0 1-9.5-7 64.82 64.82 0 0 1-3-12c-.739-1.074-1.739-1.74-3-2-2.65 1.664-5.484 2.164-8.5 1.5-.906-1.7-1.24-3.533-1-5.5z"/><path style="opacity:1" fill="#d33023" d="M120.5 35.5c4.84-.653 9.007 1.014 12.5 5 1.513 7.18-1.321 9.68-8.5 7.5-.654-4.469-1.987-8.636-4-12.5z"/><path style="opacity:1" fill="#d43023" d="M148.5 102.5c.973 2.448 1.306 5.115 1 8 .224 13.109-3.276 25.109-10.5 36a29.768 29.768 0 0 1-7 6 84.43 84.43 0 0 0-16.5-10.5 578.94 578.94 0 0 0-39-13c-10.777-3.961-19.61-10.461-26.5-19.5-3.186-11.067-.353-20.234 8.5-27.5a114.893 114.893 0 0 1 25-10 53.722 53.722 0 0 0 12-7c6.948-7.227 7.615-14.894 2-23-3.044-1.923-6.377-2.756-10-2.5a156.758 156.758 0 0 1-22 3.5c-7.867 2.85-15.867 4.85-24 6-1.493-1.156-1.326-1.99.5-2.5L68.5 39c4.975-.95 5.975-3.284 3-7a366.936 366.936 0 0 1-34-7.5c1.402-1.646 3.236-2.646 5.5-3a666.99 666.99 0 0 0 17.5 2c3.155-2.3 6.488-4.466 10-6.5 13.655-1.779 26.655.221 39 6-1.46.811-1.793 1.645-1 2.5a31.594 31.594 0 0 1 8.5-2c10.902 2.2 21.735 2.368 32.5.5a22.146 22.146 0 0 1-7 4 223.09 223.09 0 0 1-21 2 42.798 42.798 0 0 0-8 3.5c1.521.38 3.187.546 5 .5a9.457 9.457 0 0 1 1.5 2.5 57.833 57.833 0 0 1 1 20 404.108 404.108 0 0 1-17 34c-7.766 19.283-1.599 26.117 18.5 20.5a394.852 394.852 0 0 0 26-8.5z"/><path style="opacity:1" fill="#1c1310" d="M68.5 19.5c5.493-1.322 7.993.678 7.5 6-4.23 3.15-7.397 2.317-9.5-2.5a11.81 11.81 0 0 1 2-3.5z"/><path style="opacity:1" fill="#e3e1e1" d="M70.5 20.5c3.661-.15 4.661 1.35 3 4.5-3.527.882-4.193.382-2-1.5a5.576 5.576 0 0 1-1-3z"/><path style="opacity:1" fill="#c92f22" d="M113.5 13.5c10.09.352 20.09.519 30 .5a22.956 22.956 0 0 1-5 2l-20 1c-3.473.32-6.306 1.82-8.5 4.5a60.756 60.756 0 0 0-6.5-3.5c3.064-2.37 6.397-3.87 10-4.5z"/><path style="opacity:1" fill="#fdfdfd" d="M-.5 116.5c6.967 41.302 30.967 66.302 72 75h-72v-75z"/><path style="opacity:1" fill="#fdfcfc" d="M165.5 118.5v73h-74c41.2-7.534 65.867-31.867 74-73z"/><path style="opacity:1" fill="#1d0e09" d="M75.5 79.5a4.932 4.932 0 0 1 3 .5c-7.483 3.627-11.15 9.627-11 18-.057 13.568 6.276 22.568 19 27 14.325 4.634 28.658 4.634 43 0-10.999.643-20.666-2.524-29-9.5-2.61-2.883-4.442-6.217-5.5-10a590.856 590.856 0 0 0-4-21 7.291 7.291 0 0 1 2 3 503.046 503.046 0 0 0 5 22c4.343 6.763 10.51 10.929 18.5 12.5a219.618 219.618 0 0 0 19 2c-19.993 9.176-39.66 8.509-59-2-10.457-9.619-13.29-21.119-8.5-34.5 2.028-3.192 4.528-5.859 7.5-8z"/><path style="opacity:1" fill="#d03023" d="M74.5 161.5c.543-.06.876-.393 1-1a31.117 31.117 0 0 0-11-1c-2.549-.113-4.882.554-7 2-1.349-2.111-1.015-3.945 1-5.5 4.644.291 9.31.291 14 0 8.595-.647 11.428-5.147 8.5-13.5a78.937 78.937 0 0 1-3-12 33.753 33.753 0 0 0 11.5 4c.224 4.062 2.224 6.895 6 8.5-4.888 3.587-3.888 5.587 3 6a40.935 40.935 0 0 1-7 5 40.225 40.225 0 0 0 11 2c2.79 2.21 3.623 5.044 2.5 8.5-.833-1.5-2-2.667-3.5-3.5a42.479 42.479 0 0 0-13 0c-4.107 5.494-5.44 11.494-4 18-3.663 1.002-5.996-.332-7-4 1.409-4.122 2.242-8.289 2.5-12.5a124.392 124.392 0 0 0-12 9c-.757 5.953-2.924 6.286-6.5 1a52.584 52.584 0 0 1 13-11z"/><path style="opacity:1" fill="#7d261b" d="M64.5 159.5a31.117 31.117 0 0 1 11 1c-.124.607-.457.94-1 1l-10-2z"/></svg>
